svg/set/C20/C.svg

<?xml version="1.0" encoding="UTF-8" standalone="no"?>
<svg
   height="550.98633"
   width="565.33984"
   version="1.1"
   id="svg2"
   xmlns="http://www.w3.org/2000/svg"
   xmlns:svg="http://www.w3.org/2000/svg">
  <defs
     id="defs2" />
  <path
     d="M 244.66994,0 C 119.94355,29.599979 75.400329,143.32719 55.968769,152.91211 38.012349,161.7694 27.021789,147.44452 3.0136889,128.05274 -15.838331,214.79169 58.688269,270.39576 89.738299,303.64063 c 35.146681,37.63111 56.962911,52.9183 45.386721,61.73828 -10.66405,8.12502 -25.52884,-10.12755 -34.74024,-20.26953 -8.544031,89.84824 101.04379,171.17969 182.28516,205.87695 81.2414,-34.69726 190.8292,-116.02871 182.2852,-205.87695 -9.2114,10.14198 -24.0762,28.39455 -34.7403,20.26953 -11.5762,-8.81998 10.2401,-24.10717 45.3867,-61.73828 31.0501,-33.24487 105.5767,-88.84894 86.7246,-175.58789 -24.0081,19.39178 -34.9986,33.71666 -52.955,24.85937 C 489.93954,143.32719 445.39634,29.599979 320.66994,0 v 73.982419 c 0,21.09223 -16.93182,38.080991 -38,38.179691 -21.06818,-0.0987 -38,-17.087461 -38,-38.179691 z"
     style="fill:#ffffff"
     id="path1" />
  <path
     d="M 224.50391,28.234375 C 135.18053,61.118345 101.67963,129.67891 95.337891,139.56055 76.672331,168.64504 57.172741,184.38753 22.363281,168.89062 24.010691,240.8482 164.97,322.5082 159.21484,362.92188 c -1.02542,7.20064 -6.25009,11.59144 -13.05078,14.30664 23.71029,-5.80448 42.17775,-25.23236 36.00586,-71.01368 51.77678,70.08466 29.84592,134.08767 10.21875,165.65625 24.98561,22.29677 54.52092,40.99984 90.28125,56.31641 35.7603,-15.31657 65.2957,-34.01964 90.28125,-56.31641 -19.6271,-31.56858 -41.55805,-95.57159 10.21875,-165.65625 -6.1719,45.78132 12.29556,65.2092 36.00586,71.01368 -6.8007,-2.7152 -12.02528,-7.106 -13.05078,-14.30664 -5.7551,-40.41368 135.20416,-122.07368 136.85156,-194.03126 -34.8095,15.49692 -54.30901,-0.24558 -72.97461,-29.33007 -6.3417,-9.88164 -39.84263,-78.442205 -129.16601,-111.326175 v 49 c 0,30.935615 -24.90425,55.839845 -55.83985,55.839845 h -2.32617 -2.32617 c -30.93561,0 -55.83984,-24.90423 -55.83984,-55.839845 z m -40.33399,76.230465 c 6.91775,26.21504 14.2589,33.61908 25.75,44.75 -18.80492,9.57602 -55.17486,30.6826 -89.75,87.75 5.06922,-68.66845 31.08824,-103.77849 64,-132.5 z m 197,0 c 32.9118,28.72151 58.9308,63.83155 64,132.5 -34.5751,-57.0674 -70.9451,-78.17398 -89.75,-87.75 11.4911,-11.13092 18.8323,-18.53496 25.75,-44.75 z m -98.5,81.94336 c 22.89482,14.48016 38.36061,28.59538 52.26758,43.53516 -26.04917,40.37444 -41.26021,78.82878 -52.26758,115.07812 -11.00737,-36.24934 -26.21841,-74.70368 -52.26758,-115.07812 13.90697,-14.93978 29.37276,-29.055 52.26758,-43.53516 z"
     id="path2" />
</svg>

<?xml version="1.0" encoding="UTF-8" standalone="no"?>
<svg xmlns="http://www.w3.org/2000/svg" height="550.98633" width="565.33984" version="1.1">
  <path d="M 244.66994,0 C 119.94355,29.599979 75.400329,143.32719 55.968769,152.91211 38.012349,161.7694 27.021789,147.44452 3.0136889,128.05274 -15.838331,214.79169 58.688269,270.39576 89.738299,303.64063 c 35.146681,37.63111 56.962911,52.9183 45.386721,61.73828 -10.66405,8.12502 -25.52884,-10.12755 -34.74024,-20.26953 -8.544031,89.84824 101.04379,171.17969 182.28516,205.87695 81.2414,-34.69726 190.8292,-116.02871 182.2852,-205.87695 -9.2114,10.14198 -24.0762,28.39455 -34.7403,20.26953 -11.5762,-8.81998 10.2401,-24.10717 45.3867,-61.73828 31.0501,-33.24487 105.5767,-88.84894 86.7246,-175.58789 -24.0081,19.39178 -34.9986,33.71666 -52.955,24.85937 C 489.93954,143.32719 445.39634,29.599979 320.66994,0 v 73.982419 c 0,21.09223 -16.93182,38.080991 -38,38.179691 -21.06818,-0.0987 -38,-17.087461 -38,-38.179691 z" style="fill:#ffffff"/>
  <path d="M 224.50391 28.234375 C 135.18053 61.118345 101.67963 129.67891 95.337891 139.56055 C 76.672331 168.64504 57.172741 184.38753 22.363281 168.89062 C 24.010691 240.8482 164.97 322.5082 159.21484 362.92188 C 158.18942 370.12252 152.96475 374.51332 146.16406 377.22852 C 169.87435 371.42404 188.34181 351.99616 182.16992 306.21484 C 233.9467 376.2995 212.01584 440.30251 192.38867 471.87109 C 217.37428 494.16786 246.90959 512.87093 282.66992 528.1875 C 318.43022 512.87093 347.96562 494.16786 372.95117 471.87109 C 353.32407 440.30251 331.39312 376.2995 383.16992 306.21484 C 376.99802 351.99616 395.46548 371.42404 419.17578 377.22852 C 412.37508 374.51332 407.1505 370.12252 406.125 362.92188 C 400.3699 322.5082 541.32916 240.8482 542.97656 168.89062 C 508.16706 184.38754 488.66755 168.64504 470.00195 139.56055 C 463.66025 129.67891 430.15932 61.118345 340.83594 28.234375 L 340.83594 77.234375 C 340.83594 108.16999 315.93169 133.07422 284.99609 133.07422 L 282.66992 133.07422 L 280.34375 133.07422 C 249.40814 133.07422 224.50391 108.16999 224.50391 77.234375 L 224.50391 28.234375 z M 184.16992 104.46484 C 191.08767 130.67988 198.42882 138.08392 209.91992 149.21484 C 191.115 158.79086 154.74506 179.89744 120.16992 236.96484 C 125.23914 168.29639 151.25816 133.18635 184.16992 104.46484 z M 381.16992 104.46484 C 414.08172 133.18635 440.10072 168.29639 445.16992 236.96484 C 410.59482 179.89744 374.22482 158.79086 355.41992 149.21484 C 366.91102 138.08392 374.25222 130.67988 381.16992 104.46484 z M 282.66992 186.4082 C 305.56474 200.88836 321.03053 215.00358 334.9375 229.94336 C 308.88833 270.3178 293.67729 308.77214 282.66992 345.02148 C 271.66255 308.77214 256.45151 270.3178 230.40234 229.94336 C 244.30931 215.00358 259.7751 200.88836 282.66992 186.4082 z "/>
</svg>
